images_sukapura_svg/cmd/lc_fontdialog.svg

<svg viewBox="0 0 24 24" xmlns="http://www.w3.org/2000/svg" xmlns:xlink="http://www.w3.org/1999/xlink"><linearGradient id="a" gradientUnits="userSpaceOnUse" x1="13" x2="13" y1="23" y2="5"><stop offset="0" stop-color="#f7f7f7"/><stop offset=".22222222" stop-color="#fff"/><stop offset=".83333331" stop-color="#fff"/><stop offset="1" stop-color="#f7f7f7"/></linearGradient><linearGradient id="b" gradientUnits="userSpaceOnUse" x1="19.5" x2="19.5" y1="21.500002" y2="14.5"><stop offset="0" stop-color="#cfcfcf"/><stop offset=".07142864" stop-color="#e7e7e7"/><stop offset=".07142864" stop-color="#fff"/><stop offset=".5" stop-color="#f3f3f3"/><stop offset=".93333334" stop-color="#f9f9f9"/><stop offset=".93333334" stop-color="#fcfcfc"/><stop offset="1" stop-color="#fff"/></linearGradient><linearGradient id="c" gradientUnits="userSpaceOnUse" x1="19.428572" x2="19.428572" y1="18.25" y2="21.285715"><stop offset="0" stop-color="#f8f8f8"/><stop offset="1" stop-color="#fff"/></linearGradient><path d="m15.864051 17.437673h-7.8788835l-1.6034219 4.699685h-3.4003601l7.3950925-20.125709h3.179198l7.312157 20.125709h-3.414183zm-6.9113014-2.805988h5.9575414l-2.916569-8.5976587h-.08294z" fill="#4b4b4f" transform="scale(1.0062435 .99379521)"/><g transform="translate(-2 -1)"><path d="m16 13h7v10h-7z" fill="url(#a)"/><path d="m16 12c-.554 0-1 .446-1 1v10c0 .554.446 1 1 1h7c.554 0 1-.446 1-1v-10c0-.554-.446-1-1-1zm0 1h7v10h-7z" fill="#848489"/><g stroke-width=".607143"><path d="m17 14h5v8h-5z" fill="#626262"/><path d="m17.5 14.5h4v7h-4z" fill="url(#b)"/><path d="m18 16h3v2h-3z" fill="#dadada"/><path d="m18 18h3v3h-3z" fill="url(#c)"/></g></g></svg>

<?xml version="1.0" encoding="UTF-8" standalone="no"?>
<svg
   xmlns:dc="http://purl.org/dc/elements/1.1/"
   xmlns:cc="http://creativecommons.org/ns#"
   xmlns:rdf="http://www.w3.org/1999/02/22-rdf-syntax-ns#"
   xmlns:svg="http://www.w3.org/2000/svg"
   xmlns="http://www.w3.org/2000/svg"
   xmlns:sodipodi="http://sodipodi.sourceforge.net/DTD/sodipodi-0.dtd"
   xmlns:inkscape="http://www.inkscape.org/namespaces/inkscape"
   viewBox="0 0 24 24"
   version="1.1"
   id="svg4"
   sodipodi:docname="lc_fontdialog.svg"
   inkscape:version="0.92.3 (2405546, 2018-03-11)">
  <metadata
     id="metadata10">
    <rdf:RDF>
      <cc:Work
         rdf:about="">
        <dc:format>image/svg+xml</dc:format>
        <dc:type
           rdf:resource="http://purl.org/dc/dcmitype/StillImage" />
        <dc:title></dc:title>
      </cc:Work>
    </rdf:RDF>
  </metadata>
  <defs
     id="defs8">
    <linearGradient
       id="a"
       gradientUnits="userSpaceOnUse"
       x1="13"
       x2="13"
       y1="23"
       y2="5">
      <stop
         offset="0"
         stop-color="#f7f7f7"
         id="stop6683" />
      <stop
         offset=".22222222"
         stop-color="#fff"
         id="stop6685" />
      <stop
         offset=".83333331"
         stop-color="#fff"
         id="stop6687" />
      <stop
         offset="1"
         stop-color="#f7f7f7"
         id="stop6689" />
    </linearGradient>
    <linearGradient
       id="b"
       gradientUnits="userSpaceOnUse"
       x1="19.5"
       x2="19.5"
       y1="21.500002"
       y2="14.5">
      <stop
         offset="0"
         stop-color="#cfcfcf"
         id="stop6692" />
      <stop
         offset=".07142864"
         stop-color="#e7e7e7"
         id="stop6694" />
      <stop
         offset=".07142864"
         stop-color="#fff"
         id="stop6696" />
      <stop
         offset=".5"
         stop-color="#f3f3f3"
         id="stop6698" />
      <stop
         offset=".93333334"
         stop-color="#f9f9f9"
         id="stop6700" />
      <stop
         offset=".93333334"
         stop-color="#fcfcfc"
         id="stop6702" />
      <stop
         offset="1"
         stop-color="#fff"
         id="stop6704" />
    </linearGradient>
    <linearGradient
       id="c"
       gradientUnits="userSpaceOnUse"
       x1="19.428572"
       x2="19.428572"
       y1="18.25"
       y2="21.285715">
      <stop
         offset="0"
         stop-color="#f8f8f8"
         id="stop6707" />
      <stop
         offset="1"
         stop-color="#fff"
         id="stop6709" />
    </linearGradient>
  </defs>
  <sodipodi:namedview
     pagecolor="#ffffff"
     bordercolor="#666666"
     borderopacity="1"
     objecttolerance="10"
     gridtolerance="10"
     guidetolerance="10"
     inkscape:pageopacity="0"
     inkscape:pageshadow="2"
     inkscape:window-width="1366"
     inkscape:window-height="716"
     id="namedview6"
     showgrid="true"
     inkscape:zoom="16"
     inkscape:cx="-0.641163"
     inkscape:cy="9.4061812"
     inkscape:window-x="-8"
     inkscape:window-y="-8"
     inkscape:window-maximized="1"
     inkscape:current-layer="svg4">
    <inkscape:grid
       type="xygrid"
       id="grid817" />
  </sodipodi:namedview>
  <g
     aria-label="A"
     transform="scale(1.0062435,0.99379521)"
     style="font-style:normal;font-weight:normal;font-size:28.30868912px;line-height:1.25;font-family:sans-serif;letter-spacing:0px;word-spacing:0px;fill:#4b4b4f;fill-opacity:1;stroke:none;stroke-width:0.70771724"
     id="text821">
    <path
       d="M 15.864051,17.437673 H 7.9851675 L 6.3817456,22.137358 H 2.9813855 L 10.376478,2.011649 h 3.179198 l 7.312157,20.125709 H 17.45365 Z M 8.9527496,14.631685 H 14.910291 L 11.993722,6.0340263 h -0.08294 z"
       style="font-style:normal;font-variant:normal;font-weight:500;font-stretch:normal;font-family:Roboto;-inkscape-font-specification:'Roboto Medium';stroke-width:0.70771724;fill:#4b4b4f;fill-opacity:1"
       id="path823" />
  </g>
  <g
     transform="translate(-2,-1)"
     id="g6750">
    <path
       style="fill:url(#a)"
       inkscape:connector-curvature="0"
       d="m 16,13 h 7 v 10 h -7 z"
       id="path6736" />
    <path
       style="fill:#848489"
       inkscape:connector-curvature="0"
       d="m 16,12 c -0.554,0 -1,0.446 -1,1 v 10 c 0,0.554 0.446,1 1,1 h 7 c 0.554,0 1,-0.446 1,-1 V 13 c 0,-0.554 -0.446,-1 -1,-1 z m 0,1 h 7 v 10 h -7 z"
       id="path6738" />
    <g
       style="stroke-width:0.60714298"
       id="g6748">
      <path
         style="fill:#626262"
         inkscape:connector-curvature="0"
         d="m 17,14 h 5 v 8 h -5 z"
         id="path6740" />
      <path
         style="fill:url(#b)"
         inkscape:connector-curvature="0"
         d="m 17.5,14.5 h 4 v 7 h -4 z"
         id="path6742" />
      <path
         style="fill:#dadada"
         inkscape:connector-curvature="0"
         d="m 18,16 h 3 v 2 h -3 z"
         id="path6744" />
      <path
         style="fill:url(#c)"
         inkscape:connector-curvature="0"
         d="m 18,18 h 3 v 3 h -3 z"
         id="path6746" />
    </g>
  </g>
</svg>
